apps/scalable/planetkde.svg

<svg xmlns="http://www.w3.org/2000/svg" style="isolation:isolate" width="256" height="256"><defs><filter id="a" width="270.648" height="254.338" x="-7.32" y="2.95" filterUnits="userSpaceOnUse"><feGaussianBlur xmlns="http://www.w3.org/2000/svg" in="SourceGraphic" stdDeviation="4.294"/><feOffset xmlns="http://www.w3.org/2000/svg" dy="4" result="pf_100_offsetBlur"/><feFlood xmlns="http://www.w3.org/2000/svg" flood-opacity=".4"/><feComposite xmlns="http://www.w3.org/2000/svg" in2="pf_100_offsetBlur" operator="in" result="pf_100_dropShadow"/><feBlend xmlns="http://www.w3.org/2000/svg" in="SourceGraphic" in2="pf_100_dropShadow"/></filter></defs><path fill="#5884F4" d="M165.685 11.947c74.055 0 84.639 10.557 84.639 84.544v59.251c0 73.986-10.584 84.543-84.639 84.543h-75.37c-74.055 0-84.639-10.557-84.639-84.543V96.491c0-73.987 10.584-84.544 84.639-84.544h75.37z" filter="url(#a)"/><path fill="none" d="M166.444 11.95c74.406 0 85.04 10.557 85.04 84.544v59.251c0 73.986-10.634 84.543-85.04 84.543H90.719c-74.405 0-85.039-10.557-85.039-84.543V96.494c0-73.987 10.634-84.544 85.039-84.544h75.725z"/><path fill="#F7F7F7" fill-opacity=".5" d="M64.121 239.56c.55.036 1.021.098 1.581.131.435.025 1.027.011 1.468.035l-.039-7.592 26.629-24.465v-8.156l12.29-12.233v-6.115l6.144-6.117v-16.309l-8.193-8.156H87.614l-8.193-8.154H58.938l-8.195 8.154v20.389l16.443 14.34-.055 18.279-6.144 6.117v26.502l3.134 3.35zM99.904 81.267l-6.144 6.117h6.144l2.049 2.039h2.048l2.049-2.039-6.146-6.117zM177.742 109.809h-24.58l-14.338 14.271v20.388l10.241 10.194h14.339l6.145 6.116v6.116l4.097 4.077v24.465l15.556 16.365 25.688-25.567-.277-23.418 20.484-20.387h-8.194l-20.483-20.387v-8.155h-24.581l-4.097-4.078z"/><path fill="#F7F7F7" fill-opacity=".5" d="M251.484 117.964V96.493c0-9.248-.167-17.505-.603-24.875a197.93 197.93 0 0 0-.869-10.4c-.366-3.254-.812-6.298-1.352-9.147-.54-2.848-1.174-5.501-1.914-7.97-.739-2.469-1.585-4.756-2.551-6.871-.614-1.347-1.365-2.511-2.08-3.723l-2.922 2.908h-12.29l-12.29 12.233-8.193-8.155h-24.58l-12.29 12.233v10.193h12.29v-6.117h8.193v8.156l-4.098 4.076-16.385.276-6.146 5.841h-8.193v8.155l-6.146 6.117v12.23h12.29l8.195-8.154h8.193v4.078l8.192 8.155h4.098v-4.079l-8.193-8.154h8.193l8.192 8.154h10.242l-6.144-6.115 6.144-6.115h6.146l6.144 6.115h-6.144l-6.146 6.115 6.034 6.006.112 6.227h-8.193l24.581 24.465h4.095l4.097-4.076 8.193-8.157-8.193-8.154h12.291z"/><path fill="#F7F7F7" fill-opacity=".5" d="M157.259 71.073v-6.116l6.145-6.116v12.232h-6.145zM220.758 191.359v-12.784l8.194-7.604v20.388h-8.194zM136.775 11.95H90.718c-.789 0-1.348.049-2.123.051l-7.125 8.104 12.29 12.232V45.12l14.339 15.76h8.193v-8.154l12.29-12.233v-8.156l8.193-8.154V11.95zM126.533 56.802h6.146l6.145 6.116h-12.291v-6.116zM71.228 124.08h-6.145l-6.146 6.117h12.291v-6.117z"/><path fill="#F7F7F7" fill-opacity=".5" d="M16.585 30.96c-.107.152-.245.268-.35.422a39.514 39.514 0 0 0-3.267 5.848c-.965 2.115-1.811 4.402-2.551 6.871-.74 2.469-1.373 5.122-1.913 7.97-.54 2.849-.986 5.893-1.352 9.147a197.89 197.89 0 0 0-.87 10.4c-.436 7.37-.602 15.627-.602 24.875v21.471l8.193 8.154h12.29l20.485 20.389v-24.465l12.29-12.232h8.193l12.29-12.233h12.29l-6.144-6.117 12.29-14.269-12.29-12.233H67.131v16.309h-8.193l-8.195-8.155v-8.154l12.291-12.232h10.243v-8.157l-12.29-12.232H40.502v12.232H30.26L16.585 30.96zM67.131 12.515c-.429.023-1.005.008-1.429.033-3.705.217-7.189.5-10.461.863-3.272.364-6.334.808-9.199 1.344a80.758 80.758 0 0 0-7.159 1.699l7.765 7.729h20.483V12.515z"/><g opacity=".1"><path fill="#FFF" d="M5.676 126.116v29.626c0 73.986 10.584 84.543 84.639 84.543h75.37c74.055 0 84.639-10.557 84.639-84.543v-29.626H5.676z"/></g><g opacity=".2"><path fill="#FFF" d="M128 11.947v228.338h37.685c74.055 0 84.639-10.557 84.639-84.543V96.491c0-73.987-10.584-84.544-84.639-84.544H128z"/></g><g opacity=".4"><linearGradient id="b" x1=".517" x2=".517" y2="1"><stop offset="0%" stop-color="#fff"/><stop offset="12.5%" stop-opacity=".098" stop-color="#fff"/><stop offset="92.5%" stop-opacity=".098"/><stop offset="100%" stop-opacity=".498"/></linearGradient><path fill="none" stroke="url(#b)" stroke-linecap="round" stroke-linejoin="round" stroke-width="4.077" d="M165.685 11.947c74.055 0 84.639 10.557 84.639 84.544v59.251c0 73.986-10.584 84.543-84.639 84.543h-75.37c-74.055 0-84.639-10.557-84.639-84.543V96.491c0-73.987 10.584-84.544 84.639-84.544h75.37z" vector-effect="non-scaling-stroke"/></g><g><g filter="url(#c)" opacity=".3" fill="#210000"><path d="M83.573 77.735a2.286 2.286 0 0 0-1.82.69L70.379 89.799a2.672 2.672 0 0 0 0 3.787l11.75 18.457a48.447 48.447 0 0 0-2.438 5.86l-21.344 4.74a2.673 2.673 0 0 0-2.679 2.679v16.071c0 1.484 1.23 2.357 2.679 2.679l21.355 4.75a48.092 48.092 0 0 0 2.365 5.807l-11.771 18.499c-.797 1.251-1.05 2.738 0 3.787l11.363 11.374a2.672 2.672 0 0 0 3.787 0l18.499-11.782a48.276 48.276 0 0 0 5.912 2.47l4.74 21.344a2.672 2.672 0 0 0 2.678 2.679h16.072c1.484 0 2.356-1.229 2.678-2.679l4.751-21.355a48.43 48.43 0 0 0 5.89-2.406l18.415 11.729a2.673 2.673 0 0 0 3.788 0l11.374-11.374c1.049-1.049.796-2.535 0-3.787l-5.023-7.89-3.746 1.497-12.001-17.997a37.498 37.498 0 0 1-34.162 22.119c-20.711 0-37.5-16.789-37.5-37.5a37.502 37.502 0 0 1 21.428-33.838v-11.53a48.208 48.208 0 0 0-5.283 2.166L85.54 78.426c-.626-.399-1.307-.661-1.967-.691z"/><path d="M141.382 53l-26.785 2.48v104.663l26.785-5.357v-42.857l32.143 48.214 26.786-10.714-34.821-45.076 34.842-45.996L172.28 53l-30.898 45.536V53z"/></g><defs><filter id="c" width="160.664" height="166" x="47.67" y="45" filterUnits="userSpaceOnUse"><feGaussianBlur xmlns="http://www.w3.org/2000/svg" stdDeviation="1.717"/></filter></defs><g fill="#FFF"><path d="M83.573 77.735a2.286 2.286 0 0 0-1.82.69L70.379 89.799a2.672 2.672 0 0 0 0 3.787l11.75 18.457a48.447 48.447 0 0 0-2.438 5.86l-21.344 4.74a2.673 2.673 0 0 0-2.679 2.679v16.071c0 1.484 1.23 2.357 2.679 2.679l21.355 4.75a48.092 48.092 0 0 0 2.365 5.807l-11.771 18.499c-.797 1.251-1.05 2.738 0 3.787l11.363 11.374a2.672 2.672 0 0 0 3.787 0l18.499-11.782a48.276 48.276 0 0 0 5.912 2.47l4.74 21.344a2.672 2.672 0 0 0 2.678 2.679h16.072c1.484 0 2.356-1.229 2.678-2.679l4.751-21.355a48.43 48.43 0 0 0 5.89-2.406l18.415 11.729a2.673 2.673 0 0 0 3.788 0l11.374-11.374c1.049-1.049.796-2.535 0-3.787l-5.023-7.89-3.746 1.497-12.001-17.997a37.498 37.498 0 0 1-34.162 22.119c-20.711 0-37.5-16.789-37.5-37.5a37.502 37.502 0 0 1 21.428-33.838v-11.53a48.208 48.208 0 0 0-5.283 2.166L85.54 78.426c-.626-.399-1.307-.661-1.967-.691z"/><path d="M141.382 53l-26.785 2.48v104.663l26.785-5.357v-42.857l32.143 48.214 26.786-10.714-34.821-45.076 34.842-45.996L172.28 53l-30.898 45.536V53z"/></g></g></svg>

<svg xmlns="http://www.w3.org/2000/svg" style="isolation:isolate" width="256" height="256" viewBox="0 0 256 256">
 <defs>
  <filter id="hakIcgd06LS38jaZX35cAtEaMsY1lULM" width="270.648" height="254.338" x="-7.32" y="2.95" filterUnits="userSpaceOnUse">
   <feGaussianBlur xmlns="http://www.w3.org/2000/svg" in="SourceGraphic" stdDeviation="4.294"/>
   <feOffset xmlns="http://www.w3.org/2000/svg" dx="0" dy="4" result="pf_100_offsetBlur"/>
   <feFlood xmlns="http://www.w3.org/2000/svg" flood-opacity=".4"/>
   <feComposite xmlns="http://www.w3.org/2000/svg" in2="pf_100_offsetBlur" operator="in" result="pf_100_dropShadow"/>
   <feBlend xmlns="http://www.w3.org/2000/svg" in="SourceGraphic" in2="pf_100_dropShadow" mode="normal"/>
  </filter>
 </defs>
 <g filter="url(#hakIcgd06LS38jaZX35cAtEaMsY1lULM)">
  <path fill="#5884F4" d="M 165.685 11.947 C 239.74 11.947 250.324 22.504 250.324 96.491 L 250.324 155.742 C 250.324 229.728 239.74 240.285 165.685 240.285 L 90.315 240.285 C 16.26 240.285 5.676 229.728 5.676 155.742 L 5.676 96.491 C 5.676 22.504 16.26 11.947 90.315 11.947 L 165.685 11.947 Z"/>
 </g>
 <g>
  <g>
   <path fill="none" d="M 166.444 11.95 C 240.85 11.95 251.484 22.507 251.484 96.494 L 251.484 155.745 C 251.484 229.731 240.85 240.288 166.444 240.288 L 90.719 240.288 C 16.314 240.288 5.68 229.731 5.68 155.745 L 5.68 96.494 C 5.68 22.507 16.314 11.95 90.719 11.95 L 166.444 11.95 Z"/>
   <path fill="#F7F7F7" fill-opacity=".5" d="M 64.121 239.56 C 64.671 239.596 65.142 239.658 65.702 239.691 C 66.137 239.716 66.729 239.702 67.17 239.726 L 67.131 232.134 L 93.76 207.669 L 93.76 199.513 L 106.05 187.28 L 106.05 181.165 L 112.194 175.048 L 112.194 158.739 L 104.001 150.583 L 87.614 150.583 L 79.421 142.429 L 58.938 142.429 L 50.743 150.583 L 50.743 170.972 L 67.186 185.312 L 67.131 203.591 L 60.987 209.708 L 60.987 236.21 L 64.121 239.56 Z"/>
   <path fill="#F7F7F7" fill-opacity=".5" d="M 99.904 81.267 L 93.76 87.384 L 99.904 87.384 L 101.953 89.423 L 104.001 89.423 L 106.05 87.384 L 99.904 81.267 Z"/>
   <path fill="#F7F7F7" fill-opacity=".5" d="M 177.742 109.809 L 153.162 109.809 L 138.824 124.08 L 138.824 144.468 L 149.065 154.662 L 163.404 154.662 L 169.549 160.778 L 169.549 166.894 L 173.646 170.971 L 173.646 195.436 L 189.202 211.801 L 214.89 186.234 L 214.613 162.816 L 235.097 142.429 L 226.903 142.429 L 206.42 122.042 L 206.42 113.887 L 181.839 113.887 L 177.742 109.809 Z"/>
   <path fill="#F7F7F7" fill-opacity=".5" d="M 251.484 117.964 L 251.484 96.493 C 251.484 87.245 251.317 78.988 250.881 71.618 C 250.663 67.934 250.378 64.472 250.012 61.218 C 249.646 57.964 249.2 54.92 248.66 52.071 C 248.12 49.223 247.486 46.57 246.746 44.101 C 246.007 41.632 245.161 39.345 244.195 37.23 C 243.581 35.883 242.83 34.719 242.115 33.507 L 239.193 36.415 L 226.903 36.415 L 214.613 48.648 L 206.42 40.493 L 181.84 40.493 L 169.55 52.726 L 169.55 62.919 L 181.84 62.919 L 181.84 56.802 L 190.033 56.802 L 190.033 64.958 L 185.935 69.034 L 169.55 69.31 L 163.404 75.151 L 155.211 75.151 L 155.211 83.306 L 149.065 89.423 L 149.065 101.653 L 161.355 101.653 L 169.55 93.499 L 177.743 93.499 L 177.743 97.577 L 185.935 105.732 L 190.033 105.732 L 190.033 101.653 L 181.84 93.499 L 190.033 93.499 L 198.225 101.653 L 208.467 101.653 L 202.323 95.538 L 208.467 89.423 L 214.613 89.423 L 220.757 95.538 L 214.613 95.538 L 208.467 101.653 L 214.501 107.659 L 214.613 113.886 L 206.42 113.886 L 231.001 138.351 L 235.096 138.351 L 239.193 134.275 L 247.386 126.118 L 239.193 117.964 L 251.484 117.964 Z"/>
   <path fill="#F7F7F7" fill-opacity=".5" d="M 157.259 71.073 L 157.259 64.957 L 163.404 58.841 L 163.404 71.073 L 157.259 71.073 Z"/>
   <path fill="#F7F7F7" fill-opacity=".5" d="M 220.758 191.359 L 220.758 178.575 L 228.952 170.971 L 228.952 191.359 L 220.758 191.359 Z"/>
   <path fill="#F7F7F7" fill-opacity=".5" d="M 136.775 11.95 L 90.718 11.95 C 89.929 11.95 89.37 11.999 88.595 12.001 L 81.47 20.105 L 93.76 32.337 L 93.76 45.12 L 108.099 60.88 L 116.292 60.88 L 116.292 52.726 L 128.582 40.493 L 128.582 32.337 L 136.775 24.183 L 136.775 11.95 Z"/>
   <path fill="#F7F7F7" fill-opacity=".5" d="M 126.533 56.802 L 132.679 56.802 L 138.824 62.918 L 126.533 62.918 L 126.533 56.802 Z"/>
   <path fill="#F7F7F7" fill-opacity=".5" d="M 71.228 124.08 L 65.083 124.08 L 58.937 130.197 L 71.228 130.197 L 71.228 124.08 Z"/>
   <path fill="#F7F7F7" fill-opacity=".5" d="M 16.585 30.96 C 16.478 31.112 16.34 31.228 16.235 31.382 C 15.018 33.17 13.934 35.114 12.968 37.23 C 12.003 39.345 11.157 41.632 10.417 44.101 C 9.677 46.57 9.044 49.223 8.504 52.071 C 7.964 54.92 7.518 57.964 7.152 61.218 C 6.786 64.472 6.5 67.934 6.282 71.618 C 5.846 78.988 5.68 87.245 5.68 96.493 L 5.68 117.964 L 13.873 126.118 L 26.163 126.118 L 46.648 146.507 L 46.648 122.042 L 58.938 109.81 L 67.131 109.81 L 79.421 97.577 L 91.711 97.577 L 85.567 91.46 L 97.857 77.191 L 85.567 64.958 L 67.131 64.958 L 67.131 81.267 L 58.938 81.267 L 50.743 73.112 L 50.743 64.958 L 63.034 52.726 L 73.277 52.726 L 73.277 44.569 L 60.987 32.337 L 40.502 32.337 L 40.502 44.569 L 30.26 44.569 L 16.585 30.96 Z"/>
   <path fill="#F7F7F7" fill-opacity=".5" d="M 67.131 12.515 C 66.702 12.538 66.126 12.523 65.702 12.548 C 61.997 12.765 58.513 13.048 55.241 13.411 C 51.969 13.775 48.907 14.219 46.042 14.755 C 43.483 15.234 41.136 15.818 38.883 16.454 L 46.648 24.183 L 67.131 24.183 L 67.131 12.515 Z"/>
  </g>
 </g>
 <g opacity=".1">
  <path fill="#FFFFFF" d="M 5.676 126.116 L 5.676 155.742 C 5.676 229.728 16.26 240.285 90.315 240.285 L 165.685 240.285 C 239.74 240.285 250.324 229.728 250.324 155.742 L 250.324 126.116 L 5.676 126.116 Z"/>
 </g>
 <g opacity=".2">
  <path fill="#FFFFFF" d="M 128 11.947 L 128 240.285 L 165.685 240.285 C 239.74 240.285 250.324 229.728 250.324 155.742 L 250.324 96.491 C 250.324 22.504 239.74 11.947 165.685 11.947 L 128 11.947 Z"/>
 </g>
 <g opacity=".4">
  <linearGradient id="_lgradient_5" x1=".517" x2=".517" y1="0" y2="1">
   <stop offset="0%" style="stop-color:rgb(255,255,255)"/>
   <stop offset="12.5%" stop-opacity=".098" style="stop-color:rgb(255,255,255)"/>
   <stop offset="92.5%" stop-opacity=".098" style="stop-color:rgb(0,0,0)"/>
   <stop offset="100%" stop-opacity=".498" style="stop-color:rgb(0,0,0)"/>
  </linearGradient>
  <path fill="none" stroke="url(#_lgradient_5)" stroke-linecap="round" stroke-linejoin="round" stroke-width="4.077" d="M 165.685 11.947 C 239.74 11.947 250.324 22.504 250.324 96.491 L 250.324 155.742 C 250.324 229.728 239.74 240.285 165.685 240.285 L 90.315 240.285 C 16.26 240.285 5.676 229.728 5.676 155.742 L 5.676 96.491 C 5.676 22.504 16.26 11.947 90.315 11.947 L 165.685 11.947 Z" vector-effect="non-scaling-stroke"/>
 </g>
 <g>
  <g style="opacity:0.3" filter="url(#IXkyutGrfGHlDYdseeFx0WwMIjSQjL8E)">
   <path fill="#210000" d="M 83.573 77.735 C 82.914 77.694 82.278 77.897 81.753 78.425 L 70.379 89.799 C 69.33 90.848 69.33 92.537 70.379 93.586 L 82.129 112.043 C 81.189 113.941 80.375 115.898 79.691 117.903 L 58.347 122.643 C 56.863 122.643 55.668 123.837 55.668 125.322 L 55.668 141.393 C 55.668 142.877 56.898 143.75 58.347 144.072 L 79.702 148.822 C 80.363 150.806 81.153 152.747 82.067 154.629 L 70.296 173.128 C 69.499 174.379 69.246 175.866 70.296 176.915 L 81.659 188.289 C 82.708 189.338 84.397 189.338 85.446 188.289 L 103.945 176.507 C 105.859 177.461 107.834 178.285 109.857 178.977 L 114.597 200.321 C 114.597 201.806 115.791 203 117.275 203 L 133.347 203 C 134.831 203 135.703 201.771 136.025 200.321 L 140.776 178.966 C 142.79 178.294 144.758 177.49 146.666 176.56 L 165.081 188.289 C 166.131 189.338 167.82 189.338 168.869 188.289 L 180.243 176.915 C 181.292 175.866 181.039 174.38 180.243 173.128 L 175.22 165.238 L 171.474 166.735 L 159.473 148.738 C 153.425 162.187 140.057 170.842 125.311 170.857 C 104.6 170.857 87.811 154.068 87.811 133.357 C 87.828 118.889 96.167 105.72 109.239 99.519 L 109.239 87.989 C 107.437 88.606 105.673 89.329 103.956 90.155 L 85.54 78.426 C 84.914 78.027 84.233 77.765 83.573 77.735 L 83.573 77.735 Z"/>
   <path fill="#210000" d="M 141.382 53 L 114.597 55.48 L 114.597 160.143 L 141.382 154.786 L 141.382 111.929 L 173.525 160.143 L 200.311 149.429 L 165.49 104.353 L 200.332 58.357 L 172.28 53 L 141.382 98.536 L 141.382 53 Z"/>
  </g>
  <defs>
   <filter id="IXkyutGrfGHlDYdseeFx0WwMIjSQjL8E" width="160.664" height="166" x="47.67" y="45" filterUnits="userSpaceOnUse">
    <feGaussianBlur xmlns="http://www.w3.org/2000/svg" stdDeviation="1.717"/>
   </filter>
  </defs>
  <g>
   <path fill="#FFFFFF" d="M 83.573 77.735 C 82.914 77.694 82.278 77.897 81.753 78.425 L 70.379 89.799 C 69.33 90.848 69.33 92.537 70.379 93.586 L 82.129 112.043 C 81.189 113.941 80.375 115.898 79.691 117.903 L 58.347 122.643 C 56.863 122.643 55.668 123.837 55.668 125.322 L 55.668 141.393 C 55.668 142.877 56.898 143.75 58.347 144.072 L 79.702 148.822 C 80.363 150.806 81.153 152.747 82.067 154.629 L 70.296 173.128 C 69.499 174.379 69.246 175.866 70.296 176.915 L 81.659 188.289 C 82.708 189.338 84.397 189.338 85.446 188.289 L 103.945 176.507 C 105.859 177.461 107.834 178.285 109.857 178.977 L 114.597 200.321 C 114.597 201.806 115.791 203 117.275 203 L 133.347 203 C 134.831 203 135.703 201.771 136.025 200.321 L 140.776 178.966 C 142.79 178.294 144.758 177.49 146.666 176.56 L 165.081 188.289 C 166.131 189.338 167.82 189.338 168.869 188.289 L 180.243 176.915 C 181.292 175.866 181.039 174.38 180.243 173.128 L 175.22 165.238 L 171.474 166.735 L 159.473 148.738 C 153.425 162.187 140.057 170.842 125.311 170.857 C 104.6 170.857 87.811 154.068 87.811 133.357 C 87.828 118.889 96.167 105.72 109.239 99.519 L 109.239 87.989 C 107.437 88.606 105.673 89.329 103.956 90.155 L 85.54 78.426 C 84.914 78.027 84.233 77.765 83.573 77.735 L 83.573 77.735 Z"/>
   <path fill="#FFFFFF" d="M 141.382 53 L 114.597 55.48 L 114.597 160.143 L 141.382 154.786 L 141.382 111.929 L 173.525 160.143 L 200.311 149.429 L 165.49 104.353 L 200.332 58.357 L 172.28 53 L 141.382 98.536 L 141.382 53 Z"/>
  </g>
 </g>
</svg>
